X: 2111
T: Lanigan's Ball
B: nick
B: steve tunes
M:6/8
Q: 3/8=100
K:Eminor
V:1 
|:D|"Em"E2F G2A|B2A B^cd|"D"DED F2G|AdB AFD|
 "Em"E2F G2A|B2A B^cd|edB "Am"cBA|"Em"BGE E2:|
 |:d|"Em"e2f g2e|"D"fag fed|"Em"e2f g2e|"Bm"fdB B2d|
 "Em"e2f g2e|"D"fag fed|"Em"edB "Am"cBA|"Em"BGE E2:|
% abcbook-tune_id 634561baa292ccaa3f0f7a10


% abcbook-boost 0
% abcbook-tablature 
% abcbook-transpose 
% abcbook-lastupdated 1666006739957
% abcbook-soundfonts 
% abcbook-repeats 3


